Yaru++/mimetypes/scalable/application-x-virtualbox-ovf.svg

<svg height="256" viewBox="0 0 67.73 67.73" width="256" xmlns="http://www.w3.org/2000/svg" xmlns:xlink="http://www.w3.org/1999/xlink"><linearGradient id="a" gradientUnits="userSpaceOnUse" x1="18.87273576" x2="52.73773544" y1="-.74747532" y2="66.98252404"><stop offset="0" stop-color="#d37e00"/><stop offset="1" stop-color="#ffaa2d"/></linearGradient><linearGradient id="b" gradientUnits="userSpaceOnUse" x1="88" x2="488" y1="88" y2="488"><stop offset="0" stop-opacity=".588235"/><stop offset=".88" stop-opacity="0"/><stop offset="1"/></linearGradient><filter id="c" color-interpolation-filters="sRGB" height="1.087725" width="1.105998" x="-.052999" y="-.043863"><feGaussianBlur stdDeviation="8.4801079"/></filter><filter id="d" color-interpolation-filters="sRGB" height="1.021931" width="1.0265" x="-.01325" y="-.010966"><feGaussianBlur stdDeviation="2.120027"/></filter><path d="m189.84323 74c-70.59344 0-78.18921 7.250835-77.84323 77.98706v146.01294 146.01294c-.34598 70.73623 7.24979 77.98706 77.84323 77.98706h196.31354c70.59344 0 76.00668-7.27384 77.84323-77.98706v-146.01294-146.01294c0-70.737067-7.24979-77.98706-77.84323-77.98706z" filter="url(#d)" opacity=".1" transform="matrix(.13228516 0 0 .13228516 -4.409451 -6.038882)"/><path d="m189.84323 74c-70.59344 0-78.18921 7.250835-77.84323 77.98706v146.01294 146.01294c-.34598 70.73623 7.24979 77.98706 77.84323 77.98706h196.31354c70.59344 0 77.84323-7.24999 77.84323-77.98706v-146.01294-146.01294c0-70.737067-7.24979-77.98706-77.84323-77.98706z" fill="url(#b)" filter="url(#c)" opacity=".3" transform="matrix(.13228516 0 0 .13228516 -4.409451 -6.038882)"/><path d="m46.671927 3.4856499c9.338467 0 10.343273.9591779 10.297505 10.3165311v19.315344 19.315344c.04577 9.357355-.959038 10.316531-10.297505 10.316531h-25.969365c-9.338463 0-10.297504-.959068-10.297504-10.316531v-19.315344-19.315344c0-9.3574646.959041-10.3165311 10.297504-10.3165311z" fill="url(#a)"/><path d="m10.406486 24.915845h12.110168l4.022186 14.301094 5.318236-18.770189 3.815874 10.289642 3.826261-10.289642 4.507704 12.935345h12.963946" fill="none" stroke="#fff" stroke-width="2.116563"/><g fill="#fff"><path d="m33.688673 3.4856499v59.2637501h12.984614c9.338464 0 10.054627-.962123 10.297574-10.316435v-19.31544-19.315441c0-9.3574644-.95911-10.3164341-10.297574-10.3164341z" opacity=".08"/><path d="m10.406486 33.117525v19.31544c-.04577 9.357354.959108 10.316435 10.297573 10.316435h25.969228c9.338464 0 10.054627-.962123 10.297574-10.316435v-19.31544z" opacity=".08"/><path d="m41.096642 62.7494 15.874219-15.874219v5.948567c-.01384 8.994282-1.006077 9.925652-10.099734 9.925652z" opacity=".08"/><g enable-background="new" stroke-width=".26457"><path d="m31.560729 53.120629q0 .787361-.228588 1.42233-.228589.634969-.647669 1.092146-.40638.457178-.977852.711165-.571471.241288-1.244538.241288-.673067 0-1.244539-.241288-.571472-.253987-.990551-.711165-.40638-.457177-.634969-1.092146-.228589-.634969-.228589-1.42233 0-.774662.228589-1.409631.228589-.647668.634969-1.104846.419079-.457177.990551-.698465.571472-.253988 1.244539-.253988.673067 0 1.244538.253988.571472.241288.977852.698465.41908.457178.647669 1.104846.228588.634969.228588 1.409631zm-1.231839 0q0-1.117545-.507975-1.765213-.495276-.660368-1.358833-.660368-.863558 0-1.371533.660368-.495275.647668-.495275 1.765213 0 1.117545.495275 1.777912.507975.647668 1.371533.647668.863557 0 1.358833-.647668.507975-.660367.507975-1.777912z"/><path d="m38.202457 49.818791q-.495276 1.854109-1.168343 3.555825-.660367 1.701717-1.282636 3.04785h-1.066748q-.622269-1.346133-1.295336-3.04785-.660368-1.701716-1.155643-3.555825h1.269937q.152393.62227.355583 1.333435.215889.698465.444478 1.396931.241288.685766.482576 1.333434.241288.647668.457178 1.155643.215889-.507975.457177-1.155643.241288-.647668.469877-1.333434.241288-.698466.444478-1.396931.215889-.711165.368282-1.333435z"/><path d="m41.999556 46.567751q.520675 0 .888957.0762.380981.0762.533373.139694l-.215889 1.01595q-.152393-.0762-.431779-.139694-.279386-.0762-.685766-.0762-.82546 0-1.155643.457178-.330184.444478-.330184 1.20644v.571472h2.539875v.990551h-2.539875v5.613124h-1.181042v-7.200545q0-1.269938.622269-1.955704.62227-.698466 1.955704-.698466z"/></g></g><path d="m10.406486 51.903567v.529141c-.04577 9.357355.959107 10.316692 10.297573 10.316692h25.969228c9.338464 0 10.054627-.96238 10.297574-10.316692v-.529141c-.242947 9.354312-.95911 10.316692-10.297574 10.316692h-25.969228c-9.338466 0-10.343342-.959337-10.297573-10.316692z" opacity=".2"/><path d="m20.704059 3.4856499c-9.338466 0-10.343342.9593396-10.297573 10.3166921v.529141c-.04577-9.3573529.959107-10.3166925 10.297573-10.3166925h25.969228c9.338467 0 10.297574.9592282 10.297574 10.3166925v-.529141c0-9.3574639-.959107-10.3166921-10.297574-10.3166921z" fill="#fff" opacity=".4"/></svg>

<?xml version="1.0" encoding="UTF-8" standalone="no"?>
<svg
   xmlns:dc="http://purl.org/dc/elements/1.1/"
   xmlns:cc="http://creativecommons.org/ns#"
   xmlns:rdf="http://www.w3.org/1999/02/22-rdf-syntax-ns#"
   xmlns:svg="http://www.w3.org/2000/svg"
   xmlns="http://www.w3.org/2000/svg"
   xmlns:xlink="http://www.w3.org/1999/xlink"
   xmlns:sodipodi="http://sodipodi.sourceforge.net/DTD/sodipodi-0.dtd"
   xmlns:inkscape="http://www.inkscape.org/namespaces/inkscape"
   height="256"
   viewBox="0 0 67.73 67.73"
   width="256"
   version="1.1"
   id="svg71"
   sodipodi:docname="3.svg"
   inkscape:version="0.92.5 (2060ec1f9f, 2020-04-08)">
  <metadata
     id="metadata77">
    <rdf:RDF>
      <cc:Work
         rdf:about="">
        <dc:format>image/svg+xml</dc:format>
        <dc:type
           rdf:resource="http://purl.org/dc/dcmitype/StillImage" />
        <dc:title></dc:title>
      </cc:Work>
    </rdf:RDF>
  </metadata>
  <defs
     id="defs75">
    <linearGradient
       gradientTransform="matrix(0.26457031,0,0,0.26457031,-6.5260144,-8.1554436)"
       inkscape:collect="always"
       xlink:href="#linearGradient944"
       id="linearGradient946"
       x1="96"
       y1="28"
       x2="224"
       y2="284"
       gradientUnits="userSpaceOnUse" />
    <linearGradient
       inkscape:collect="always"
       id="linearGradient944">
      <stop
         style="stop-color:#d37e00;stop-opacity:1"
         offset="0"
         id="stop940" />
      <stop
         style="stop-color:#ffaa2d;stop-opacity:1"
         offset="1"
         id="stop942" />
    </linearGradient>
    <linearGradient
       inkscape:collect="always"
       xlink:href="#linearGradient4360"
       id="linearGradient4358"
       x1="88"
       y1="88"
       x2="488"
       y2="488"
       gradientUnits="userSpaceOnUse" />
    <linearGradient
       id="linearGradient4360"
       inkscape:collect="always">
      <stop
         id="stop4362"
         offset="0"
         style="stop-color:#000000;stop-opacity:0.58823532" />
      <stop
         style="stop-color:#000000;stop-opacity:0"
         offset="0.88"
         id="stop4364" />
      <stop
         id="stop4366"
         offset="1"
         style="stop-color:#000000;stop-opacity:1" />
    </linearGradient>
    <filter
       inkscape:collect="always"
       style="color-interpolation-filters:sRGB"
       id="filter4380"
       x="-0.052999184"
       width="1.1059984"
       y="-0.043862626"
       height="1.0877253">
      <feGaussianBlur
         inkscape:collect="always"
         stdDeviation="8.4801079"
         id="feGaussianBlur4382" />
    </filter>
    <filter
       inkscape:collect="always"
       style="color-interpolation-filters:sRGB"
       id="filter4346"
       x="-0.013249796"
       width="1.0264996"
       y="-0.010965657"
       height="1.0219313">
      <feGaussianBlur
         inkscape:collect="always"
         stdDeviation="2.120027"
         id="feGaussianBlur4348" />
    </filter>
  </defs>
  <sodipodi:namedview
     pagecolor="#ffffff"
     bordercolor="#666666"
     borderopacity="1"
     objecttolerance="10"
     gridtolerance="10"
     guidetolerance="10"
     inkscape:pageopacity="0"
     inkscape:pageshadow="2"
     inkscape:window-width="960"
     inkscape:window-height="1016"
     id="namedview73"
     showgrid="false"
     inkscape:zoom="2.1678636"
     inkscape:cx="127.33085"
     inkscape:cy="129.82524"
     inkscape:window-x="0"
     inkscape:window-y="27"
     inkscape:window-maximized="0"
     inkscape:current-layer="svg71" />
  <clipPath
     id="a">
    <path
       clip-rule="evenodd"
       d="m152.41481 67.378572c-15.66876 58.457688-58.457703 92.981748-58.457703 125.268288 0 32.28655 26.171153 58.45769 58.457703 58.45769s58.4577-26.17114 58.4577-58.45769c0-32.28654-42.78894-66.8106-58.4577-125.268288"
       id="path2" />
  </clipPath>
  <linearGradient
     id="b"
     gradientTransform="matrix(0 -.11988342 .11987999 0 .362762 292.01605)"
     gradientUnits="userSpaceOnUse"
     x1="529.65515"
     x2="-35.310345"
     y1="401.58368"
     y2="119.09284">
    <stop
       offset="0"
       stop-color="#f2f2f2"
       id="stop5" />
    <stop
       offset="1"
       stop-color="#f9f9f9"
       id="stop7" />
  </linearGradient>
  <linearGradient
     id="c"
     gradientUnits="userSpaceOnUse"
     x1="88"
     x2="488"
     y1="88"
     y2="488">
    <stop
       offset="0"
       stop-opacity=".588235"
       id="stop10" />
    <stop
       offset=".88"
       stop-opacity="0"
       id="stop12" />
    <stop
       offset="1"
       id="stop14" />
  </linearGradient>
  <filter
     id="d"
     color-interpolation-filters="sRGB"
     height="1.087725"
     width="1.105998"
     x="-.052999"
     y="-.043863">
    <feGaussianBlur
       stdDeviation="8.4801079"
       id="feGaussianBlur17" />
  </filter>
  <filter
     id="e"
     color-interpolation-filters="sRGB"
     height="1.021931"
     width="1.0265"
     x="-.01325"
     y="-.010966">
    <feGaussianBlur
       stdDeviation="2.120027"
       id="feGaussianBlur20" />
  </filter>
  <path
     style="color:#000000;display:inline;overflow:visible;visibility:visible;opacity:0.1;fill:#000000;fill-opacity:1;fill-rule:nonzero;stroke:none;stroke-width:2;marker:none;filter:url(#filter4346);enable-background:accumulate"
     d="M 189.84323,74 C 119.24979,74 111.65402,81.250835 112,151.98706 V 298 444.01294 C 111.65402,514.74917 119.24979,522 189.84323,522 H 386.15677 C 456.75021,522 462.16345,514.72616 464,444.01294 V 298 151.98706 C 464,81.249993 456.75021,74 386.15677,74 Z"
     id="rect4158-9"
     inkscape:connector-curvature="0"
     sodipodi:nodetypes="scccssscsss"
     transform="matrix(0.13228516,0,0,0.13228516,-4.4094514,-6.0388816)" />
  <path
     sodipodi:nodetypes="scccssscsss"
     inkscape:connector-curvature="0"
     id="path4350"
     d="M 189.84323,74 C 119.24979,74 111.65402,81.250835 112,151.98706 V 298 444.01294 C 111.65402,514.74917 119.24979,522 189.84323,522 H 386.15677 C 456.75021,522 464,514.75001 464,444.01294 V 298 151.98706 C 464,81.249993 456.75021,74 386.15677,74 Z"
     style="color:#000000;display:inline;overflow:visible;visibility:visible;opacity:0.3;fill:url(#linearGradient4358);fill-opacity:1;fill-rule:nonzero;stroke:none;stroke-width:2;marker:none;filter:url(#filter4380);enable-background:accumulate"
     transform="matrix(0.13228516,0,0,0.13228516,-4.4094514,-6.0388816)" />
  <path
     style="color:#000000;display:inline;overflow:visible;visibility:visible;fill:url(#linearGradient946);fill-opacity:1;fill-rule:nonzero;stroke:none;stroke-width:0.26457033;marker:none;enable-background:accumulate"
     d="m 46.671927,3.4856499 c 9.338467,0 10.343273,0.9591779 10.297505,10.3165311 V 33.117525 52.432869 C 57.015202,61.790224 56.010394,62.7494 46.671927,62.7494 H 20.702562 c -9.338463,0 -10.297504,-0.959068 -10.297504,-10.316531 V 33.117525 13.802181 c 0,-9.3574646 0.959041,-10.3165311 10.297504,-10.3165311 z"
     id="rect4158"
     inkscape:connector-curvature="0"
     sodipodi:nodetypes="scccssscsss" />
  <path
     style="display:inline;fill:none;stroke:#ffffff;stroke-width:2.1165626;stroke-linecap:butt;stroke-linejoin:miter;stroke-miterlimit:4;stroke-dasharray:none;stroke-opacity:1;enable-background:new"
     d="M 10.406486,24.915845 H 22.516654 L 26.53884,39.216939 31.857076,20.44675 35.67295,30.736392 39.499211,20.44675 44.006915,33.382095 h 12.963946"
     id="path938"
     inkscape:connector-curvature="0"
     sodipodi:nodetypes="cccccccc" />
  <path
     style="color:#000000;display:inline;overflow:visible;visibility:visible;opacity:0.07999998;fill:#ffffff;fill-opacity:1;fill-rule:nonzero;stroke:none;stroke-width:0.26457033;marker:none;enable-background:accumulate"
     d="M 33.688673,3.4856499 V 62.7494 h 12.984614 c 9.338464,0 10.054627,-0.962123 10.297574,-10.316435 V 33.117525 13.802084 c 0,-9.3574644 -0.95911,-10.3164341 -10.297574,-10.3164341 z"
     id="path4231"
     inkscape:connector-curvature="0"
     sodipodi:nodetypes="ccsscssc" />
  <path
     inkscape:connector-curvature="0"
     style="color:#000000;display:inline;overflow:visible;visibility:visible;opacity:0.07999998;fill:#ffffff;fill-opacity:1;fill-rule:nonzero;stroke:none;stroke-width:0.26457033;marker:none;enable-background:accumulate"
     d="m 10.406486,33.117525 v 19.31544 C 10.360716,61.790319 11.365594,62.7494 20.704059,62.7494 h 25.969228 c 9.338464,0 10.054627,-0.962123 10.297574,-10.316435 v -19.31544 z"
     id="path4255"
     sodipodi:nodetypes="ccssscc" />
  <path
     style="color:#000000;display:inline;overflow:visible;visibility:visible;opacity:0.07999998;fill:#ffffff;fill-opacity:1;fill-rule:nonzero;stroke:none;stroke-width:2.11656237;stroke-linecap:butt;stroke-linejoin:miter;stroke-miterlimit:4;stroke-dasharray:none;stroke-dashoffset:0;stroke-opacity:1;marker:none;enable-background:accumulate"
     d="M 41.096642,62.7494 56.970861,46.875181 v 5.948567 C 56.957021,61.81803 55.964784,62.7494 46.871127,62.7494 Z"
     id="path4254"
     inkscape:connector-curvature="0"
     sodipodi:nodetypes="cccsc" />
  <g
     aria-label="ovf"
     style="font-style:normal;font-weight:normal;font-size:10.58281231px;line-height:1.25;font-family:sans-serif;letter-spacing:0px;word-spacing:0px;display:inline;opacity:1;fill:#ffffff;fill-opacity:1;stroke:none;stroke-width:0.26457033;enable-background:new"
     id="text130">
    <path
       d="m 31.560729,53.120629 q 0,0.787361 -0.228588,1.42233 -0.228589,0.634969 -0.647669,1.092146 -0.40638,0.457178 -0.977852,0.711165 -0.571471,0.241288 -1.244538,0.241288 -0.673067,0 -1.244539,-0.241288 -0.571472,-0.253987 -0.990551,-0.711165 -0.40638,-0.457177 -0.634969,-1.092146 -0.228589,-0.634969 -0.228589,-1.42233 0,-0.774662 0.228589,-1.409631 0.228589,-0.647668 0.634969,-1.104846 0.419079,-0.457177 0.990551,-0.698465 0.571472,-0.253988 1.244539,-0.253988 0.673067,0 1.244538,0.253988 0.571472,0.241288 0.977852,0.698465 0.41908,0.457178 0.647669,1.104846 0.228588,0.634969 0.228588,1.409631 z m -1.231839,0 q 0,-1.117545 -0.507975,-1.765213 -0.495276,-0.660368 -1.358833,-0.660368 -0.863558,0 -1.371533,0.660368 -0.495275,0.647668 -0.495275,1.765213 0,1.117545 0.495275,1.777912 0.507975,0.647668 1.371533,0.647668 0.863557,0 1.358833,-0.647668 0.507975,-0.660367 0.507975,-1.777912 z"
       style="font-style:normal;font-variant:normal;font-weight:normal;font-stretch:normal;font-size:12.69937515px;font-family:ubuntu;-inkscape-font-specification:ubuntu;text-align:center;text-anchor:middle;fill:#ffffff;fill-opacity:1;stroke-width:0.26457033"
       id="path1072" />
    <path
       d="m 38.202457,49.818791 q -0.495276,1.854109 -1.168343,3.555825 -0.660367,1.701717 -1.282636,3.04785 H 34.68473 Q 34.062461,55.076333 33.389394,53.374616 32.729026,51.6729 32.233751,49.818791 h 1.269937 q 0.152393,0.62227 0.355583,1.333435 0.215889,0.698465 0.444478,1.396931 0.241288,0.685766 0.482576,1.333434 0.241288,0.647668 0.457178,1.155643 0.215889,-0.507975 0.457177,-1.155643 0.241288,-0.647668 0.469877,-1.333434 0.241288,-0.698466 0.444478,-1.396931 0.215889,-0.711165 0.368282,-1.333435 z"
       style="font-style:normal;font-variant:normal;font-weight:normal;font-stretch:normal;font-size:12.69937515px;font-family:ubuntu;-inkscape-font-specification:ubuntu;text-align:center;text-anchor:middle;fill:#ffffff;fill-opacity:1;stroke-width:0.26457033"
       id="path1074" />
    <path
       d="m 41.999556,46.567751 q 0.520675,0 0.888957,0.0762 0.380981,0.0762 0.533373,0.139694 l -0.215889,1.01595 q -0.152393,-0.0762 -0.431779,-0.139694 -0.279386,-0.0762 -0.685766,-0.0762 -0.82546,0 -1.155643,0.457178 -0.330184,0.444478 -0.330184,1.20644 v 0.571472 H 43.1425 v 0.990551 h -2.539875 v 5.613124 h -1.181042 v -7.200545 q 0,-1.269938 0.622269,-1.955704 0.62227,-0.698466 1.955704,-0.698466 z"
       style="font-style:normal;font-variant:normal;font-weight:normal;font-stretch:normal;font-size:12.69937515px;font-family:ubuntu;-inkscape-font-specification:ubuntu;text-align:center;text-anchor:middle;fill:#ffffff;fill-opacity:1;stroke-width:0.26457033"
       id="path1076" />
  </g>
  <path
     style="color:#000000;display:inline;overflow:visible;visibility:visible;opacity:0.2;fill:#000000;fill-opacity:1;fill-rule:nonzero;stroke:none;stroke-width:0.26457033;marker:none;enable-background:accumulate"
     d="m 10.406486,51.903567 v 0.529141 C 10.360716,61.790063 11.365593,62.7494 20.704059,62.7494 h 25.969228 c 9.338464,0 10.054627,-0.96238 10.297574,-10.316692 v -0.529141 c -0.242947,9.354312 -0.95911,10.316692 -10.297574,10.316692 H 20.704059 c -9.338466,0 -10.343342,-0.959337 -10.297573,-10.316692 z"
     id="path945"
     inkscape:connector-curvature="0" />
  <path
     style="color:#000000;display:inline;overflow:visible;visibility:visible;opacity:0.4;fill:#ffffff;fill-opacity:1;fill-rule:nonzero;stroke:none;stroke-width:0.26457033;marker:none;enable-background:accumulate"
     d="m 20.704059,3.4856499 c -9.338466,0 -10.343342,0.9593396 -10.297573,10.3166921 v 0.529141 C 10.360716,4.9741301 11.365593,4.0147905 20.704059,4.0147905 h 25.969228 c 9.338467,0 10.297574,0.9592282 10.297574,10.3166925 v -0.529141 c 0,-9.3574639 -0.959107,-10.3166921 -10.297574,-10.3166921 z"
     id="path931"
     inkscape:connector-curvature="0" />
</svg>
